actions/22/debug-step-out.svg

<svg xmlns="http://www.w3.org/2000/svg" viewBox="0 0 22 22">
  <defs id="defs3051">
    <style type="text/css" id="current-color-scheme">
      .ColorScheme-Text {
        color:#808080;
      }
      .ColorScheme-Highlight {
        color:#3daee9;
      }
      </style>
  </defs>
 <g transform="translate(-378.85714-540.07647)">
  <path d="m394.85714 547.07647l3-2-3-1.99999z" style="fill:#f60;fill-rule:evenodd"/>
  <path d="m381.85714 543.07647v4 12h1 15v-1-9h-1v9h-14v-11h9v-2-2zm6.42773 6c-1.06609 0-1.51367.35225-1.51367 1.25391v1.22265c0 .55691-.0205 1.20117-.60937 1.20117h-.30469v.64454h.30469c.58889 0 .60937.64426.60937 1.20117v1.22265c0 .90166.44758 1.25391 1.51367 1.25391v-.5918c-.71072 0-.7207-.23916-.7207-1.10547v-1.00781c0-.41546-.12361-1.03466-.72265-1.29101.59904-.25635.72265-.8736.72265-1.28907v-1.01757c0-.86631.001-1.10547.7207-1.10547zm3.13672 0v.5918c.71073 0 .72852.23916.72852 1.10547v1.01757c0 .41547.12361 1.03272.72266 1.28907-.59905.25635-.72266.87555-.72266 1.29101v1.00781c0 .86631-.0177 1.10547-.72852 1.10547v.5918c1.0661 0 1.52148-.35225 1.52149-1.25391v-1.22265c0-.55691.0404-1.20117.61914-1.20117h.29492v-.64454h-.29492c-.57874 0-.61915-.64426-.61914-1.20117v-1.22265c0-.90166-.45539-1.25391-1.52149-1.25391" style="fill:currentColor;fill-opacity:1;stroke:none" 
  class="ColorScheme-Text"/>
 </g>
</svg>

<svg xmlns="http://www.w3.org/2000/svg" version="1.1" viewBox="0 0 22 22">
 <defs>
  <style id="current-color-scheme" type="text/css">
   .ColorScheme-Text { color:#808080; } .ColorScheme-Highlight { color:#3daee9; }
  </style>
 </defs>
 <g transform="translate(-378.86,-540.08)">
  <path d="M 394.86,547.08 397.86,545.08 394.86,543.08 Z" style="fill:#ff6600;fill-rule:evenodd"/>
  <path class="ColorScheme-Text" d="M 381.86,543.08 V 547.08 559.08 H 382.86 397.86 V 558.08 549.08 H 396.86 V 558.08 H 382.86 V 547.08 H 391.86 V 545.08 543.08 Z M 388.28,549.08 C 387.22,549.08 386.77,549.43 386.77,550.33 V 551.55 C 386.77,552.11 386.75,552.75 386.16,552.75 H 385.86 V 553.4 H 386.16 C 386.75,553.4 386.77,554.04 386.77,554.6 V 555.82 C 386.77,556.72 387.22,557.08 388.28,557.08 V 556.48 C 387.57,556.48 387.56,556.25 387.56,555.38 V 554.37 C 387.56,553.96 387.44,553.34 386.84,553.08 387.44,552.82 387.56,552.21 387.56,551.79 V 550.77 C 387.56,549.91 387.57,549.67 388.28,549.67 Z M 391.42,549.08 V 549.67 C 392.13,549.67 392.15,549.91 392.15,550.77 V 551.79 C 392.15,552.21 392.27,552.82 392.87,553.08 392.27,553.34 392.15,553.96 392.15,554.37 V 555.38 C 392.15,556.25 392.13,556.48 391.42,556.48 V 557.08 C 392.49,557.08 392.94,556.72 392.94,555.82 V 554.6 C 392.94,554.04 392.98,553.4 393.56,553.4 H 393.86 V 552.75 H 393.56 C 392.98,552.75 392.94,552.11 392.94,551.55 V 550.33 C 392.94,549.43 392.49,549.08 391.42,549.08" style="color:#808080;fill:currentColor"/>
 </g>
</svg>
